public/Img/Home/quality__security.svg

<svg width="48" height="48" viewBox="0 0 48 48" fill="none" xmlns="http://www.w3.org/2000/svg">
<path fill-rule="evenodd" clip-rule="evenodd" d="M43.094 7.77243L24.719 0.143332C24.2587 -0.0477305 23.7413 -0.0478242 23.281 0.143332L4.90603 7.77243C4.20619 8.06305 3.75 8.7463 3.75 9.50408V18.7783C3.75 31.5483 11.4683 43.0352 23.2914 47.861C23.7456 48.0463 24.2543 48.0463 24.7086 47.861C36.5315 43.0353 44.25 31.5484 44.25 18.7783V9.50408C44.25 8.7463 43.7939 8.06305 43.094 7.77243ZM21.5936 25.5971L30.9502 15.7801C31.8003 14.8882 33.1786 14.888 34.0288 15.7801C34.8789 16.6721 34.8788 18.1182 34.0287 19.0101L23.1329 30.4421C22.2826 31.3342 20.9043 31.3339 20.0543 30.4421L13.9706 24.059C13.1205 23.167 13.1205 21.7209 13.9706 20.829C14.8208 19.9371 16.1991 19.9369 17.0492 20.829L21.5936 25.5971Z" fill="#6B7CFF"/>
</svg>

<svg width="48" height="48" fill="none" xmlns="http://www.w3.org/2000/svg"><path fill-rule="evenodd" clip-rule="evenodd" d="M43.094 7.772 24.719.143a1.875 1.875 0 0 0-1.438 0L4.906 7.773c-.7.29-1.156.973-1.156 1.731v9.274a31.4 31.4 0 0 0 19.541 29.083c.455.185.963.185 1.418 0A31.4 31.4 0 0 0 44.25 18.778V9.504c0-.758-.456-1.44-1.156-1.732Zm-21.5 17.825 9.356-9.817a2.105 2.105 0 0 1 3.079 0c.85.892.85 2.338 0 3.23L23.133 30.442a2.105 2.105 0 0 1-3.079 0l-6.083-6.383a2.364 2.364 0 0 1 0-3.23 2.105 2.105 0 0 1 3.078 0l4.545 4.768Z" fill="#6B7CFF"/></svg>
